app/themes/uggwc_pro/assets/images/thema/Publizistik.svg

<svg width="16" height="16" viewBox="0 0 16 16" fill="none" xmlns="http://www.w3.org/2000/svg">
<g clip-path="url(#clip0_111_209)">
<path d="M11.5352 0.517285L9.78096 2.27464L13.724 6.21766L15.4782 4.46345C16.1679 3.77374 16.1679 2.65886 15.4782 1.96915L14.0295 0.517285C13.3398 -0.172428 12.2249 -0.172428 11.5352 0.517285ZM9.00306 2.92026L8.71332 3.00844L4.17507 4.36897C3.54834 4.55793 3.05074 5.03664 2.84288 5.66022L0.0525362 13.9809C-0.0671401 14.3367 0.0210424 14.7336 0.282441 15.0013L5.11988 10.167C5.0254 9.96856 4.97186 9.74811 4.97186 9.51505C4.97186 8.68047 5.64898 8.00335 6.48356 8.00335C7.31815 8.00335 7.99526 8.68047 7.99526 9.51505C7.99526 10.3496 7.31815 11.0268 6.48356 11.0268C6.25051 11.0268 6.03005 10.9732 5.83164 10.8787L0.9942 15.7162C1.26505 15.9776 1.65872 16.0689 2.0146 15.9461L10.3384 13.1557C10.9588 12.9479 11.4407 12.4503 11.6296 11.8235L12.9902 7.28529L13.0784 6.99555L9.00306 2.92026Z" fill="#6E6CFF"/>
</g>
<defs>
<clipPath id="clip0_111_209">
<rect width="16" height="16" fill="white"/>
</clipPath>
</defs>
</svg>

<svg width="16" height="16" fill="none" xmlns="http://www.w3.org/2000/svg"><g clip-path="url(#a)"><path d="M11.535.517 9.781 2.275l3.943 3.943 1.754-1.755c.69-.69.69-1.804 0-2.494L14.03.517a1.762 1.762 0 0 0-2.495 0zM9.003 2.92l-.29.088L4.175 4.37A2.014 2.014 0 0 0 2.843 5.66l-2.79 8.32c-.12.357-.032.754.23 1.021l4.837-4.834a1.511 1.511 0 1 1 .712.712L.994 15.716a1 1 0 0 0 1.02.23l8.324-2.79a2.02 2.02 0 0 0 1.292-1.333l1.36-4.538.088-.29L9.003 2.92z" fill="#6E6CFF"/></g><defs><clipPath id="a"><path fill="#fff" d="M0 0h16v16H0z"/></clipPath></defs></svg>
